icons/svg/road_shields/h_us_state_bypass_icon_shield.svg

<?xml version="1.0" encoding="UTF-8" standalone="no"?>
<!-- Generator: Adobe Illustrator 16.0.4, SVG Export Plug-In . SVG Version: 6.00 Build 0)  -->

<svg
   xmlns:dc="http://purl.org/dc/elements/1.1/"
   xmlns:cc="http://creativecommons.org/ns#"
   xmlns:rdf="http://www.w3.org/1999/02/22-rdf-syntax-ns#"
   xmlns:svg="http://www.w3.org/2000/svg"
   xmlns="http://www.w3.org/2000/svg"
   xmlns:sodipodi="http://sodipodi.sourceforge.net/DTD/sodipodi-0.dtd"
   xmlns:inkscape="http://www.inkscape.org/namespaces/inkscape"
   version="1.1"
   id="Слой_1"
   x="0px"
   y="0px"
   width="25"
   height="33"
   viewBox="0 0 25 33"
   enable-background="new 0 0 17.143 17.17"
   xml:space="preserve"
   inkscape:version="0.91 r"
   sodipodi:docname="h_us_state_bypass_icon_shield.svg"><metadata
     id="metadata13"><rdf:RDF><cc:Work
         rdf:about=""><dc:format>image/svg+xml</dc:format><dc:type
           rdf:resource="http://purl.org/dc/dcmitype/StillImage" /><dc:title></dc:title></cc:Work></rdf:RDF></metadata><defs
     id="defs11" /><sodipodi:namedview
     pagecolor="#ffffff"
     bordercolor="#666666"
     borderopacity="1"
     objecttolerance="10"
     gridtolerance="10"
     guidetolerance="10"
     inkscape:pageopacity="0"
     inkscape:pageshadow="2"
     inkscape:window-width="1920"
     inkscape:window-height="1004"
     id="namedview9"
     showgrid="false"
     inkscape:zoom="13.744904"
     inkscape:cx="11.406787"
     inkscape:cy="25.542558"
     inkscape:window-x="1680"
     inkscape:window-y="0"
     inkscape:window-maximized="1"
     inkscape:current-layer="Слой_1" /><rect
     style="color:#000000;clip-rule:evenodd;display:inline;overflow:visible;visibility:visible;opacity:1;isolation:auto;mix-blend-mode:normal;color-interpolation:sRGB;color-interpolation-filters:linearRGB;solid-color:#000000;solid-opacity:1;fill:#ffffff;fill-opacity:1;fill-rule:evenodd;stroke:#515151;stroke-width:1.08273661;stroke-linecap:butt;stroke-linejoin:miter;stroke-miterlimit:4;stroke-dasharray:none;stroke-dashoffset:0;stroke-opacity:1;marker:none;color-rendering:auto;image-rendering:auto;shape-rendering:auto;text-rendering:auto;enable-background:accumulate"
     id="rect4135"
     width="19.803215"
     height="7.0026784"
     x="2.598392"
     y="0.54790115"
     ry="0" /><path
     inkscape:connector-curvature="0"
     id="path4146"
     style="font-style:normal;font-variant:normal;font-weight:bold;font-stretch:normal;font-size:medium;line-height:125%;font-family:Sans;-inkscape-font-specification:'Sans Bold';letter-spacing:0px;word-spacing:0px;fill:#515151;fill-opacity:1;stroke:none;stroke-width:1px;stroke-linecap:butt;stroke-linejoin:miter;stroke-opacity:1"
     d="m 6.9852514,3.6020075 q 0.2943011,0 0.4463025,-0.1102729 Q 7.583556,3.3814617 7.583556,3.1664299 7.583556,2.9541547 7.4315539,2.843882 7.2795516,2.7308527 6.9852514,2.7308527 l -0.6888586,0 0,0.8711552 0.6888586,0 z m 0.042043,1.8002037 q 0.3751531,0 0.5627295,-0.1350842 0.1908106,-0.1350842 0.1908106,-0.4080095 0,-0.2674115 -0.1875765,-0.3997388 Q 7.4056813,4.3242945 7.0272942,4.3242945 l -0.7309014,0 0,1.0779167 0.7309014,0 z M 8.1850941,3.9217986 q 0.4010255,0.099246 0.6209427,0.3666572 0.2199172,0.2674115 0.2199172,0.6561232 0,0.5954732 -0.4721753,0.8876962 -0.4721752,0.2922234 -1.4359302,0.2922234 l -2.0665754,0 0,-4.1159329 1.8692967,0 q 1.0057981,0 1.4553347,0.2591408 0.4527709,0.2591411 0.4527709,0.8298028 0,0.3004934 -0.164938,0.5127686 -0.1649379,0.2095184 -0.4786433,0.3115207 z" /><path
     inkscape:connector-curvature="0"
     id="path4148"
     style="font-style:normal;font-variant:normal;font-weight:bold;font-stretch:normal;font-size:medium;line-height:125%;font-family:Sans;-inkscape-font-specification:'Sans Bold';letter-spacing:0px;word-spacing:0px;fill:#515151;fill-opacity:1;stroke:none;stroke-width:1px;stroke-linecap:butt;stroke-linejoin:miter;stroke-opacity:1"
     d="m 10.037249,2.0085657 1.361547,0 1.099585,1.4666281 1.099587,-1.4666281 1.364781,0 -1.84019,2.3818924 0,1.7340405 -1.24512,0 0,-1.7340405 -1.84019,-2.3818924 z" /><path
     inkscape:connector-curvature="0"
     id="path4150"
     style="font-style:normal;font-variant:normal;font-weight:bold;font-stretch:normal;font-size:medium;line-height:125%;font-family:Sans;-inkscape-font-specification:'Sans Bold';letter-spacing:0px;word-spacing:0px;fill:#515151;fill-opacity:1;stroke:none;stroke-width:1px;stroke-linecap:butt;stroke-linejoin:miter;stroke-opacity:1"
     d="m 15.974048,2.0085657 2.066575,0 q 0.921711,0 1.41329,0.3501158 0.494814,0.3473594 0.494814,0.9924554 0,0.6478528 -0.494814,0.9979689 -0.491579,0.3473594 -1.41329,0.3473594 l -0.821456,0 0,1.4280334 -1.245119,0 0,-4.1159329 z m 1.245119,0.7691525 0,1.1495941 0.688859,0 q 0.362215,0 0.559495,-0.1488683 0.197278,-0.1516251 0.197278,-0.4273071 0,-0.2756821 -0.197278,-0.4245503 -0.19728,-0.1488684 -0.559495,-0.1488684 l -0.688859,0 z" /></svg>

<svg width="25" height="33" viewBox="0 0 25 33" fill="none" xmlns="http://www.w3.org/2000/svg">
<path d="M22.4016 0.547913H2.59839V7.55059H22.4016V0.547913Z" fill="white" stroke="#515151" stroke-width="1.08274"/>
<path d="M6.98525 3.60199C7.18145 3.60199 7.33022 3.56523 7.43155 3.49171C7.53289 3.4182 7.58355 3.30976 7.58355 3.16641C7.58355 3.02489 7.53289 2.91738 7.43155 2.84386C7.33022 2.76851 7.18145 2.73083 6.98525 2.73083H6.29639V3.60199H6.98525V3.60199ZM7.02729 5.40219C7.27739 5.40219 7.46497 5.35716 7.59002 5.26711C7.71723 5.17705 7.78083 5.04105 7.78083 4.8591C7.78083 4.68082 7.71831 4.54758 7.59325 4.45936C7.4682 4.3693 7.27955 4.32427 7.02729 4.32427H6.29639V5.40219H7.02729H7.02729ZM8.18509 3.92178C8.45244 3.98794 8.65942 4.11016 8.80603 4.28844C8.95265 4.46671 9.02595 4.68542 9.02595 4.94456C9.02595 5.34154 8.86856 5.63744 8.55378 5.83225C8.23899 6.02707 7.76035 6.12448 7.11785 6.12448H5.05127V2.00854H6.92057C7.5911 2.00854 8.07621 2.09493 8.3759 2.26769C8.67775 2.44045 8.82867 2.71705 8.82867 3.09749C8.82867 3.29782 8.77369 3.46874 8.66373 3.61026C8.55378 3.74994 8.39423 3.85378 8.18509 3.92178V3.92178Z" fill="#515151"/>
<path d="M10.0372 2.00854H11.3988L12.4984 3.47517L13.598 2.00854H14.9627L13.1226 4.39044V6.12448H11.8774V4.39044L10.0372 2.00854Z" fill="#515151"/>
<path d="M15.974 2.00854H18.0406C18.6551 2.00854 19.1262 2.12525 19.4539 2.35866C19.7838 2.59023 19.9487 2.92105 19.9487 3.35112C19.9487 3.78302 19.7838 4.11567 19.4539 4.34909C19.1262 4.58066 18.6551 4.69644 18.0406 4.69644H17.2192V6.12448H15.974V2.00854V2.00854ZM17.2192 2.7777V3.92729H17.908C18.1495 3.92729 18.336 3.87767 18.4675 3.77842C18.599 3.67734 18.6648 3.5349 18.6648 3.35112C18.6648 3.16733 18.599 3.02581 18.4675 2.92657C18.336 2.82732 18.1495 2.7777 17.908 2.7777H17.2192Z" fill="#515151"/>
</svg>
